icons/square/48/steam_icon_474750.svg

<svg version="1.1" viewBox="0 0 48 48" xmlns="http://www.w3.org/2000/svg">
 <defs>
  <linearGradient id="bg" x2="0" y1="1" y2="47" gradientUnits="userSpaceOnUse">
   <stop stop-color="#3d3d3d" offset="0"/>
   <stop stop-color="#303030" offset="1"/>
  </linearGradient>
 </defs>
 <path d="m1 43v0.25c0 2.216 1.784 4 4 4h38c2.216 0 4-1.784 4-4v-0.25c0 2.216-1.784 4-4 4h-38c-2.216 0-4-1.784-4-4zm0 0.5v0.5c0 2.216 1.784 4 4 4h38c2.216 0 4-1.784 4-4v-0.5c0 2.216-1.784 4-4 4h-38c-2.216 0-4-1.784-4-4z" opacity=".02"/>
 <path d="m1 43.25v0.25c0 2.216 1.784 4 4 4h38c2.216 0 4-1.784 4-4v-0.25c0 2.216-1.784 4-4 4h-38c-2.216 0-4-1.784-4-4z" opacity=".05"/>
 <path d="m1 43v0.25c0 2.216 1.784 4 4 4h38c2.216 0 4-1.784 4-4v-0.25c0 2.216-1.784 4-4 4h-38c-2.216 0-4-1.784-4-4z" opacity=".1"/>
 <rect x="1" y="1" width="46" height="46" rx="4" fill="url(#bg)"/>
 <path d="m1 39v4c0 2.216 1.784 4 4 4h38c2.216 0 4-1.784 4-4v-4c0 2.216-1.784 4-4 4h-38c-2.216 0-4-1.784-4-4z" opacity=".1"/>
 <path d="m16 14.732a2 2 0 1 1 2 0v2.2679h5v-3.2679a2 2 0 1 1 2 0v3.2679h5v-2.2679a2 2 0 1 1 2 0v18.268l-8 5-8-5z" opacity=".1"/>
 <g transform="translate(0 -1)">
  <path d="m16 21 0.5-0.5h8v17l-0.5 0.5-8-5z" fill="#eee"/>
  <path d="m32 21-0.5-0.5h-7.5v17.5l8-5z" fill="#aaa"/>
  <path d="m20 25h1v4h-1zm7 0h1v4h-1z" fill="#111"/>
  <path d="m16 21h8l0.5-0.5v-10l-0.5-0.5a2 2 0 0 0-1 3.7321v3.2679h-5v-2.2679a2 2 0 1 0-2 0z" fill="#dc0"/>
  <path d="m32 21h-8v-11a2 2 0 0 1 1 3.7321v3.2679h5v-2.2679a2 2 0 1 1 2 0z" fill="#980"/>
 </g>
</svg>

<?xml version="1.0" encoding="UTF-8" standalone="no"?>
<svg xmlns="http://www.w3.org/2000/svg" version="1.1" viewBox="0 0 48 48">
	<defs>
		<linearGradient id="bg" gradientUnits="userSpaceOnUse" x1="0" x2="0" y1="1" y2="47">
			<stop offset="0" stop-color="#3d3d3d"/>
			<stop offset="1" stop-color="#303030"/>
		</linearGradient>
	</defs>
	<g>
		<path opacity=".02" d="m1 43v0.25c0 2.216 1.784 4 4 4h38c2.216 0 4-1.784 4-4v-0.25c0 2.216-1.784 4-4 4h-38c-2.216 0-4-1.784-4-4zm0 0.5v0.5c0 2.216 1.784 4 4 4h38c2.216 0 4-1.784 4-4v-0.5c0 2.216-1.784 4-4 4h-38c-2.216 0-4-1.784-4-4z"/>
		<path opacity=".05" d="m1 43.25v0.25c0 2.216 1.784 4 4 4h38c2.216 0 4-1.784 4-4v-0.25c0 2.216-1.784 4-4 4h-38c-2.216 0-4-1.784-4-4z"/>
		<path opacity=".1" d="m1 43v0.25c0 2.216 1.784 4 4 4h38c2.216 0 4-1.784 4-4v-0.25c0 2.216-1.784 4-4 4h-38c-2.216 0-4-1.784-4-4z"/>
		<rect fill="url(#bg)" rx="4" height="46" width="46" y="1" x="1"/>
		<path opacity=".1" d="m1 39v4c0 2.216 1.784 4 4 4h38c2.216 0 4-1.784 4-4v-4c0 2.216-1.784 4-4 4h-38c-2.216 0-4-1.784-4-4z"/>
	</g>
	<path opacity=".1" d="M 16 14.7320508075688772 a 2 2 0 1 1 2 0 V 17 H 23 V 13.7320508075688772 a 2 2 0 1 1 2 0 V 17 H 30 V 14.7320508075688772 a 2 2 0 1 1 2 0 V 33 l -8 5 -8 -5 z"/>
	<g transform="translate(0 -1)">
		<path fill="#eee" d="M 16 21 l .5 -.5 h 8 v 17 l -.5 .5 -8 -5 z"/>
		<path fill="#aaa" d="M 32 21 l -.5 -.5 h -7.5 v 17.5 l 8 -5 z"/>
		<path fill="#111" d="M 20 25 h 1 v 4 h -1 z M 27 25 h 1 v 4 h -1 z"/>
		<path fill="#dc0" d="M 16 21 H 24 l .5 -.5 v -10 l -.5 -.5 a 2 2 0 0 0 -1 3.7320508075688772 V 17 H 18 V 14.7320508075688772 a 2 2 0 1 0 -2 0 z"/>
		<path fill="#980" d="M 32 21 H 24 V 10 a 2 2 0 0 1 1 3.7320508075688772 V 17 H 30 V 14.7320508075688772 a 2 2 0 1 1 2 0 z"/>
	</g>
</svg>
